curriculum/images/exercise-icons/tic-tac-toe.svg

<svg xmlns="http://www.w3.org/2000/svg" width="683" height="683" fill="none" viewBox="0 0 683 683"><g clip-path="url(#a)"><path fill="url(#b)" d="M310.667 1.333C192 12.8 87.867 84.267 36 190 14.533 233.6 4.533 270.8 1.067 319.733c-3.2 44.667 4 95.867 19.6 138.4 7.2 19.734 24.533 53.867 36.133 71.2 32.267 48.267 76.133 88 126 113.867 32 16.667 62 27.067 96.533 33.467 110.8 20.4 222-13.6 301.867-92.534 52.8-52.266 87.067-119.866 98.133-193.466 4.534-30.134 3.867-73.6-1.466-105.6-3.067-17.6-10.267-45.2-15.867-60.534-7.067-19.2-24.4-53.733-35.2-69.866-27.067-40.667-63.867-76.8-103.6-102-15.067-9.6-48-25.734-65.067-32-18-6.667-46-13.734-66.8-16.8C371.2.8 329.733-.4 310.667 1.333M267.733 175.6l28.934-28.933 16 16 16 16-29.067 29.066-28.933 28.934L300 266l29.333 29.333-16 16-16 16L268 298l-29.333-29.333L209.333 298 180 327.333 164.4 311.6 148.667 296 178 266.667l29.333-29.334L178 208l-29.333-29.333 16-16 16-16L209.6 175.6l29.067 29.067zm198.134-24.933c15.733 4 27.866 10.933 40.266 23.333 22.134 21.867 31.067 50.133 25.334 79.333-9.2 46.534-52.4 78.267-98 72-30.667-4.133-55.6-21.733-68.8-48.266-13.067-26.534-13.2-52.934-.4-79.6 7.6-16 23.733-32.134 39.733-40 19.6-9.6 41.6-12 61.867-6.8m-204.134 208.8c27.867 7.2 52.8 30.8 61.734 58.266 19.2 59.6-26.667 119.867-88.667 116.534-58.933-3.067-98.4-59.6-80.667-115.6 14.267-45.067 61.6-71.067 107.6-59.2m153.2 25.466L444 414l29.333-29.333 29.334-29.334L518 370.667c8.4 8.4 15.333 15.866 15.333 16.666s-12.933 14.267-28.666 30L476 446l28.933 28.933L534 504l-16 16-16 16-29.333-29.333-29.334-29.334-28.933 28.934-29.067 29.066-15.6-15.733L354 504l29.067-29.067L412 446l-28.667-28.667c-15.733-15.733-28.666-29.2-28.666-30C354.667 386 384 356 385.333 356c.4 0 13.734 13.067 29.6 28.933"/><path fill="#3301fa" d="M436.933 193.467c-15.333 2.266-28.933 13.2-34.4 27.733-2.266 6-2.666 9.467-2.266 18.133.8 13.067 4.533 21.467 13.733 29.867 9.333 8.533 16.533 11.467 29.333 11.467 9.467 0 11.734-.534 19.6-4.4 9.734-4.8 16.4-11.467 21.334-21.467 4.533-9.2 4.4-26-.4-36.133-8.4-18-27.334-28-46.934-25.2"/><path fill="#4a01f3" d="M225.733 403.2c-26.8 8.8-38.933 39.067-25.466 63.6 18.266 33.6 67.866 29.2 80.266-7.2 6.934-20.4-3.2-44.4-22.8-53.6-9.066-4.4-23.6-5.6-32-2.8"/></g><defs><linearGradient id="b" x1="341.332" x2="341.332" y1="682.468" y2=".535" gradientUnits="userSpaceOnUse"><stop stop-color="#5f00ed"/><stop offset="1" stop-color="#2301ff"/></linearGradient><clipPath id="a"><path fill="#fff" d="M0 0h682.667v682.667H0z"/></clipPath></defs></svg>

<svg width="683" height="683" viewBox="0 0 683 683" fill="none" xmlns="http://www.w3.org/2000/svg">
<g clip-path="url(#clip0_133_2)">
<path d="M310.667 1.33327C192 12.7999 87.8667 84.2666 36 190C14.5334 233.6 4.53338 270.8 1.06671 319.733C-2.13329 364.4 5.06671 415.6 20.6667 458.133C27.8667 477.867 45.2 512 56.8 529.333C89.0667 577.6 132.933 617.333 182.8 643.2C214.8 659.867 244.8 670.267 279.333 676.667C390.133 697.067 501.333 663.067 581.2 584.133C634 531.867 668.267 464.267 679.333 390.667C683.867 360.533 683.2 317.067 677.867 285.067C674.8 267.467 667.6 239.867 662 224.533C654.933 205.333 637.6 170.8 626.8 154.667C599.733 114 562.933 77.8666 523.2 52.6666C508.133 43.0666 475.2 26.9333 458.133 20.6666C440.133 13.9999 412.133 6.93327 391.333 3.86661C371.2 0.79994 329.733 -0.40006 310.667 1.33327ZM267.733 175.6L296.667 146.667L312.667 162.667L328.667 178.667L299.6 207.733L270.667 236.667L300 266L329.333 295.333L313.333 311.333L297.333 327.333L268 298L238.667 268.667L209.333 298L180 327.333L164.4 311.6L148.667 296L178 266.667L207.333 237.333L178 208L148.667 178.667L164.667 162.667L180.667 146.667L209.6 175.6L238.667 204.667L267.733 175.6ZM465.867 150.667C481.6 154.667 493.733 161.6 506.133 174C528.267 195.867 537.2 224.133 531.467 253.333C522.267 299.867 479.067 331.6 433.467 325.333C402.8 321.2 377.867 303.6 364.667 277.067C351.6 250.533 351.467 224.133 364.267 197.467C371.867 181.467 388 165.333 404 157.467C423.6 147.867 445.6 145.467 465.867 150.667ZM261.733 359.467C289.6 366.667 314.533 390.267 323.467 417.733C342.667 477.333 296.8 537.6 234.8 534.267C175.867 531.2 136.4 474.667 154.133 418.667C168.4 373.6 215.733 347.6 261.733 359.467ZM414.933 384.933L444 414L473.333 384.667L502.667 355.333L518 370.667C526.4 379.067 533.333 386.533 533.333 387.333C533.333 388.133 520.4 401.6 504.667 417.333L476 446L504.933 474.933L534 504L518 520L502 536L472.667 506.667L443.333 477.333L414.4 506.267L385.333 535.333L369.733 519.6L354 504L383.067 474.933L412 446L383.333 417.333C367.6 401.6 354.667 388.133 354.667 387.333C354.667 386 384 356 385.333 356C385.733 356 399.067 369.067 414.933 384.933Z" fill="url(#paint0_linear_133_2)"/>
<path d="M436.933 193.467C421.6 195.733 408 206.667 402.533 221.2C400.267 227.2 399.867 230.667 400.267 239.333C401.067 252.4 404.8 260.8 414 269.2C423.333 277.733 430.533 280.667 443.333 280.667C452.8 280.667 455.067 280.133 462.933 276.267C472.667 271.467 479.333 264.8 484.267 254.8C488.8 245.6 488.667 228.8 483.867 218.667C475.467 200.667 456.533 190.667 436.933 193.467Z" fill="#3301FA"/>
<path d="M225.733 403.2C198.933 412 186.8 442.267 200.267 466.8C218.533 500.4 268.133 496 280.533 459.6C287.467 439.2 277.333 415.2 257.733 406C248.667 401.6 234.133 400.4 225.733 403.2Z" fill="#4A01F3"/>
</g>
<defs>
<linearGradient id="paint0_linear_133_2" x1="341.332" y1="682.468" x2="341.332" y2="0.535095" gradientUnits="userSpaceOnUse">
<stop stop-color="#5F00ED"/>
<stop offset="1" stop-color="#2301FF"/>
</linearGradient>
<clipPath id="clip0_133_2">
<rect width="682.667" height="682.667" fill="white"/>
</clipPath>
</defs>
</svg>
